X:145
T:Parish of Kilcar* (r)
B:NFID.243c  ("untitled reel")
145par_k
S:JMcK
L:1/8
M:C
R:reel
Q:360
K:Em
BE~E2 E2 (3DEF|G2AG FGAc|BE~E2 B2ef|gfed g2fg|
BE~E2 E2 (3DEF|G2AG FGAc|BE~E2 B2ef|gfed e2||
ef|gfga bgeg|fefg afdf|gfga bgeg|fedf e3f|
gfga bgeg|fefg afdf|(3gfg bg fgaf|gfed (3efg fg||

%%%

